public/icons/collection.svg

<svg width="20" height="18" viewBox="0 0 20 18" fill="none" xmlns="http://www.w3.org/2000/svg">
<path d="M8 11H12C12.2652 11 12.5196 10.8946 12.7071 10.7071C12.8946 10.5196 13 10.2652 13 10C13 9.73478 12.8946 9.48043 12.7071 9.29289C12.5196 9.10536 12.2652 9 12 9H8C7.73478 9 7.48043 9.10536 7.29289 9.29289C7.10536 9.48043 7 9.73478 7 10C7 10.2652 7.10536 10.5196 7.29289 10.7071C7.48043 10.8946 7.73478 11 8 11V11ZM17 0H3C2.20435 0 1.44129 0.316071 0.87868 0.87868C0.316071 1.44129 0 2.20435 0 3V6C0 6.26522 0.105357 6.51957 0.292893 6.70711C0.48043 6.89464 0.734784 7 1 7H2V15C2 15.7956 2.31607 16.5587 2.87868 17.1213C3.44129 17.6839 4.20435 18 5 18H15C15.7956 18 16.5587 17.6839 17.1213 17.1213C17.6839 16.5587 18 15.7956 18 15V7H19C19.2652 7 19.5196 6.89464 19.7071 6.70711C19.8946 6.51957 20 6.26522 20 6V3C20 2.20435 19.6839 1.44129 19.1213 0.87868C18.5587 0.316071 17.7956 0 17 0ZM16 15C16 15.2652 15.8946 15.5196 15.7071 15.7071C15.5196 15.8946 15.2652 16 15 16H5C4.73478 16 4.48043 15.8946 4.29289 15.7071C4.10536 15.5196 4 15.2652 4 15V7H16V15ZM18 5H2V3C2 2.73478 2.10536 2.48043 2.29289 2.29289C2.48043 2.10536 2.73478 2 3 2H17C17.2652 2 17.5196 2.10536 17.7071 2.29289C17.8946 2.48043 18 2.73478 18 3V5Z" fill="none"/>
</svg>

<svg xmlns="http://www.w3.org/2000/svg" width="20" height="18" fill="none"><path d="M8 11h4a1 1 0 0 0 0-2H8a1 1 0 0 0 0 2Zm9-11H3a3 3 0 0 0-3 3v3a1 1 0 0 0 1 1h1v8a3 3 0 0 0 3 3h10a3 3 0 0 0 3-3V7h1a1 1 0 0 0 1-1V3a3 3 0 0 0-3-3Zm-1 15a1 1 0 0 1-1 1H5a1 1 0 0 1-1-1V7h12v8Zm2-10H2V3a1 1 0 0 1 1-1h14a1 1 0 0 1 1 1v2Z"/></svg>
